app/javascript/images/hardpoints/radar.svg

<svg fill="#428bca" stroke="#428bca" viewBox="0 0 41.32 41.32" xmlns="http://www.w3.org/2000/svg"><circle cx="20.66" cy="20.66" opacity=".3" r="16.46" stroke-miterlimit="10" stroke-width="5"/><path d="m41.32 20.16h-20.16v-20.16h-1v20.16h-20.16v1h20.16v20.16h1v-19.42l11.26 11.94a1 1 0 1 0 1.41-1.41l-12-11.26h19.49z"><circle cx="20.66" cy="20.66" opacity=".2" r="9.18" stroke-miterlimit="10" stroke-width="5"/><circle cx="20.66" cy="20.66" opacity=".15" r="5.58" stroke-miterlimit="10" stroke-width="5"/></path></svg>

<svg xmlns="http://www.w3.org/2000/svg" viewBox="0 0 41.32 41.32" style="fill: #428bca; stroke: #428bca">
  <circle style="stroke-miterlimit: 10;stroke-width: 5px;opacity: 0.3" cx="20.66" cy="20.66" r="16.46"></circle>
  <path d="M41.32,20.16H21.16V0h-1V20.16H0v1H20.16V41.32h1V21.9L32.42,33.84a1,1,0,1,0,1.41-1.41l-12-11.26H41.32Z">
    <circle cx="20.66" cy="20.66" r="9.18" style="stroke-miterlimit:10;stroke-width:5px;opacity:0.2"></circle>
    <circle cx="20.66" cy="20.66" r="5.58" style="stroke-miterlimit:10;stroke-width:5px;opacity:0.15"></circle>
  </path>
</svg>
